X:007
T:Ballykeal Jig 
B:CRE3.006 (Port an Bhaile Chaoil)
F:file ID: cre.3/007ballyk
R:jig
Q:160
M:6/8
L:1/8
K:G
AEA A2c|AEA dBc|BGG DGG|BGB dcB|
AEA A2c|AEA A2g|bag fdc|1 BGB dcB:|\
[2 BGG GBd||
|:~g3 gag|fde fdc|dgg bag|fec def|
~g3 bag|fde fga|bag fdc|1 BGG GBd:|\
[2 BGB dcB||

%%%

